build/category/MartiniSolid.svg

<svg xmlns="http://www.w3.org/2000/svg" fill="none" viewBox="0 0 24 24" focusable="false"><path d="M0 0H24V24H0z"/><path fill="#74767B" fill-rule="evenodd" d="M3.77694 5.13224C3.07134 4.28552 3.67344 3 4.77563 3L19.2245 3C20.3267 3 20.9288 4.28551 20.2232 5.13224L12.6502 14.2238L12.6502 19.7L16.3501 19.7C16.7091 19.7 17.0001 19.991 17.0001 20.35C17.0001 20.709 16.7091 21 16.3501 21L7.65007 21C7.29109 21 7.00007 20.709 7.00007 20.35C7.00007 19.991 7.29109 19.7 7.65007 19.7L11.3502 19.7L11.3502 14.2201C8.82504 11.1912 6.29996 8.1626 3.77694 5.13224ZM16.3433 7.7575C14.6762 7.23014 13.5773 7.33886 12.5993 7.62183C11.5378 7.92893 10.9369 8.29401 9.81093 8.29401C8.33561 8.29401 7.49967 7.53701 7.24741 7.26613L4.77563 4.3L19.2245 4.3L16.3433 7.7575Z"/></svg>

<svg xmlns="http://www.w3.org/2000/svg" fill="none" viewBox="0 0 24 24" focusable="false"><path fill="#74767B" fill-rule="evenodd" d="M3.77 5.13c-.7-.85-.1-2.13 1-2.13h14.45c1.1 0 1.7 1.28 1 2.13l-7.57 9.09v5.48h3.7c.35 0 .65.29.65.65 0 .35-.3.65-.65.65H7.64c-.35 0-.64-.3-.64-.65 0-.36.29-.65.64-.65h3.71v-5.48c-2.53-3.03-5.06-6.06-7.58-9.09m12.57 2.62c-1.67-.52-2.77-.42-3.75-.13-1.06.3-1.66.67-2.78.67-1.48 0-2.32-.76-2.57-1.03L4.77 4.3h14.45z"/></svg>
